X:10321
T:Marcy Ferous GS.016
T:the Lady first Highdance,aka. GS.016
M:6/8
L:1/8
Q:120
S:George Spencer m/s, Leeds,1831
R:Jig
O:England
A:Leeds
N:Titles - I'm relatively sure about 'Marcy' rather than 'Nancy', and
N:that's what the second word looks like-the second  title is written in
N:the same/a similar writing.  The writing of the music appears fairly
N:uniform throughout, but the titles seem to be in more than one
N:handwriting.  High Dance - a French English or Scots step or solo
N:dance.
H:1831
Z:vmp.Cherri Graebe
K:D major
A | ABG FGE | DDD DDD | FED AGF | FEE E3 | ABG FGE |! DDD DDD | FAD EAG|
FDD D2 ||: A | FAA Add | dff fed |! Aag fed | e2ee2e | FAA Aed | dff fed
 | ABG FGE | FDD D2 :||
